X:1
T:Title
%%score { 1 | 2 }
L:1/8
Q:1/4=118
M:4/4
K:Eb
V:1 treble nm="Grand Piano"
V:2 bass 
V:1
 [B,EG]4 [CEA]2 [CEc]2 | [EB]4 [EG]4 | [CE]4 [DF]4 | G8 | B4 c2 [Ad]2 | [Ge]4 [Ec]4 | %6
w: George~S.~Stebbins * *||||||
[M:5/4] [B,DB]2- [B,DB]2- [B,DB]6 |[M:4/4] [B,EG]4 [CEA]2 [CEc]2 | [EB]4 [B,EG]4 | %9
w: |||
 [G,CE]4 [B,DF]4 | [=B,DG]8 | [CE]4 [CEF]2 [CEA]2 | [EG]4 [A,DF]4 |[M:5/4] [G,E]2- [G,E]2- [G,E]6 | %14
w: |||||
[M:4/4] [DB]4 F2 A2 | G4 [FB]4 | [Gc]4 c4 | d8 | d4 [CGc]2 [_DGB]2 | [DFB]4 [EF=A]4 | %20
w: ||||||
[M:5/4] [DFB]2- [DFB]2- [DFB]6 |[M:4/4] [B,EG]4 [CEA]2 [CEc]2 | [EB]4 [B,EG]4 | [G,CE]4 [B,DF]4 | %24
w: ||||
 [=B,DG]8 | [CE]4 [CEF]2 [CEA]2 | [EG]4 [A,DF]4 |[M:5/4] [G,E]2- [G,E]2- [G,E]6 |] %28
w: ||||
V:2
 E,4 C,2 A,,2 | [B,,G,]4 [B,,B,]4 | [C,G,]4 [B,,B,]4 | [E,B,E]8 | [G,B,E]4 [A,E]2 [F,B,]2 | %5
 [E,B,]4 [F,=A,]4 |[M:5/4] B,,2- B,,2- B,,6 |[M:4/4] E,4 C,2 A,,2 | [B,,G,]4 B,,4 | D,4 B,,4 | %10
 G,,8 | C,4 A,2 F,2 | B,4 B,,4 |[M:5/4] E,2- E,2- E,6 |[M:4/4] [B,,F,]4 [D,B,D]2 [F,B,D]2 | %15
 [E,B,E]4 [D,B,]4 | [E,B,]4[K:treble] [F,=A,F]4 | [B,F]8 | [G,B,G]4[K:bass] E,2 =E,2 | F,4 F,4 | %20
[M:5/4] B,2- B,2- B,6 |[M:4/4] E,4 C,2 A,,2 | [B,,G,]4 B,,4 | C,4 B,,4 | G,,8 | C,4 A,2 F,2 | %26
 B,4 B,,4 |[M:5/4] E,2- E,2- E,6 |] %28

